X:1
T:Das Leiden des Herrn, LM
T:Das Leiden des Herrn, LM
T:German traditional melody
T:Public Domain Courtesy of the Cyber Hymnal™
C:German traditional melody
Z:Public Domain
Z:Courtesy of the Cyber Hymnal™
%%score ( 1 2 ) ( 3 4 )
L:1/8
Q:1/4=110
M:3/4
K:G
V:1 treble 
V:2 treble 
V:3 bass 
V:4 bass 
V:1
 E2 E2 E2 | (B3 c) [EB]2 | [GB]2 [FA]2 [EG]2 | F6 | [CA]2 [EA]2 [FA]2 | (A3 G) [EF]2 | %6
 (G2 A2) [FB]2 | E4 [DB]2 | [CA]2 [EF]2 (GF) | [CE]4 [CD]2 x2 | B4 [EA]2 | B6 | [EB]2 B2 [EB]2 x | %13
 [EA]4 [B,B]2 | [^CG]2 F4 | E6 |] %16
V:2
 E2 E2 E2 | E4 x2 | x6 | (E2 D4) | x6 | B,4 x2 | E4 x2 | E4 x2 | x4 D2 | x8 | (E2 D2) x2 | %11
 (E4 ^D2) | x2 (^GF) x3 | x6 | x2 (E2 ^D2) | E6 |] %16
V:3
 E,2 (E,F,) ([E,G,][F,A,]) | [G,B,]3 [F,A,] [G,B,]2 | [A,^C]4 [A,,C]2 | (A,4 B,2) | %4
 [A,,C]2 [C,C]2 [D,C]2 | [E,B,]4 [E,A,]2 | (G,2 C2) [D,B,]2 | (B,2 A,2) [G,,D,]2 | %8
 (E,2 A,2) (B,A,) | G,4 z2 F,2 | [G,,G,]4 [C,E,]2 | [B,,F,]6 | [E,,E,^G,]2 E2 [F,,F,] [^G,,G,D]2 | %13
 [A,D]2 A,2 [G,,C]2 | [A,,A,]2 [B,,A,]4 | [E,G,]6 |] %16
V:4
 E,2 E,2 x2 | x6 | x6 | D,6 | x6 | x6 | E,4 x2 | C,4 x2 | C,4 B,,2 | B,,2 A,,4 x2 | x6 | x6 | %12
 x2 [E,,E,] x4 | A,,4 x2 | x6 | x6 |] %16

